X: 31716
T: Pasucáis De Xuan Martín
R: slip jig
M: 9/8
K: Amajor
|:fga gfe f3|fga gfe c3|cAc BGB c2A|cAc BGB A3:|
|:ABc ABc B3|ecA dcB cGA|FGA BAB c2A|cAc BGB A3:|

